www/assets/icons/swipe_left.svg

<svg xmlns="http://www.w3.org/2000/svg" width="24" height="24" viewBox="0 0 24 24" fill='currentColor'><path d="m19.98 16.82-.63 4.46c-.14.99-.99 1.72-1.98 1.72h-6.16c-.53 0-1.29-.21-1.66-.59L5 17.62l.83-.84c.24-.24.58-.35.92-.28l3.25.74V6.5c0-.83.67-1.5 1.5-1.5s1.5.67 1.5 1.5v6h.91c.31 0 .62.07.89.21l4.09 2.04c.77.39 1.21 1.22 1.09 2.07M12 2.5c4.74 0 7.67 2.52 8.43 4.5H22c-.73-2.88-4.51-6-10-6-3.22 0-6.18 1.13-8.5 3.02V2H2v5h5V5.5H4.09c2.12-1.86 4.88-3 7.91-3"/></svg>

<svg width="24" height="24" viewBox="0 0 24 24" xmlns="http://www.w3.org/2000/svg" fill='currentColor'><path d="M19.98 16.82L19.35 21.28C19.21 22.27 18.36 23 17.37 23H11.21C10.68 23 9.92 22.79 9.55 22.41L5 17.62L5.83 16.78C6.07 16.54 6.41 16.43 6.75 16.5L10 17.24V6.5C10 5.67 10.67 5 11.5 5C12.33 5 13 5.67 13 6.5V12.5H13.91C14.22 12.5 14.53 12.57 14.8 12.71L18.89 14.75C19.66 15.14 20.1 15.97 19.98 16.82ZM12 2.5C16.74 2.5 19.67 5.02 20.43 7H22C21.27 4.12 17.49 1 12 1C8.78 1 5.82 2.13 3.5 4.02V2H2V7H7V5.5H4.09C6.21 3.64 8.97 2.5 12 2.5Z"/></svg>
